svg/fluentui-system-icons/ic_fluent_scan_thumb_up_48_filled.svg

<svg width="48" height="48" viewBox="0 0 48 48" fill="none" xmlns="http://www.w3.org/2000/svg">
<path d="M12.25 6C8.79822 6 6 8.79822 6 12.25V18.75C6 19.4404 6.55964 20 7.25 20C7.94036 20 8.5 19.4404 8.5 18.75V12.25C8.5 10.1789 10.1789 8.5 12.25 8.5H18.75C19.4404 8.5 20 7.94036 20 7.25C20 6.55964 19.4404 6 18.75 6H12.25ZM35.75 6C39.2018 6 42 8.79822 42 12.25V18.75C42 19.4404 41.4404 20 40.75 20C40.0596 20 39.5 19.4404 39.5 18.75V12.25C39.5 10.1789 37.8211 8.5 35.75 8.5H29.25C28.5596 8.5 28 7.94036 28 7.25C28 6.55964 28.5596 6 29.25 6H35.75ZM6 35.75C6 39.2018 8.79822 42 12.25 42H18.75C19.4404 42 20 41.4404 20 40.75C20 40.0596 19.4404 39.5 18.75 39.5H12.25C10.1789 39.5 8.5 37.8211 8.5 35.75V29.25C8.5 28.5596 7.94036 28 7.25 28C6.55964 28 6 28.5596 6 29.25V35.75ZM35.75 42C39.2018 42 42 39.2018 42 35.75V29.25C42 28.5596 41.4404 28 40.75 28C40.0596 28 39.5 28.5596 39.5 29.25V35.75C39.5 37.8211 37.8211 39.5 35.75 39.5H29.25C28.5596 39.5 28 40.0596 28 40.75C28 41.4404 28.5596 42 29.25 42H35.75ZM25.2921 11.75C24.3964 11.75 23.7563 12.2404 23.3523 12.7579C22.9671 13.2516 22.7199 13.8565 22.5493 14.3841C22.3737 14.9272 22.2474 15.4924 22.1493 15.9593C22.1243 16.0777 22.1018 16.1864 22.0812 16.2861C22.0294 16.5365 21.9892 16.7305 21.9519 16.8809L19.1751 21.1971C18.6434 22.0235 17.858 22.6601 16.933 23.0119L15.6782 23.4892C14.3224 24.0048 13.5265 25.4186 13.8055 26.8477L14.4903 30.3562C14.7514 31.6935 15.77 32.7516 17.0915 33.0733L25.3253 35.0781C28.51 35.8535 31.7399 33.9369 32.5543 30.7637L34.1252 24.6436C34.6701 22.5205 33.453 20.4318 31.3071 19.8883C31.0922 19.8338 30.8124 19.8023 30.6184 19.7843C30.4065 19.7646 30.1692 19.75 30.0002 19.75H28.6678C28.8902 18.8675 29.0374 18.0034 29.0374 17.2113C29.0374 15.8801 28.7784 14.5958 28.2109 13.5965C27.6311 12.5754 26.6487 11.75 25.2921 11.75Z" fill="#212121"/>
</svg>

<svg xmlns="http://www.w3.org/2000/svg" width="48" height="48"><path d="M12.25 6A6.25 6.25 0 0 0 6 12.25v6.5a1.25 1.25 0 1 0 2.5 0v-6.5a3.75 3.75 0 0 1 3.75-3.75h6.5a1.25 1.25 0 1 0 0-2.5h-6.5Zm23.5 0A6.25 6.25 0 0 1 42 12.25v6.5a1.25 1.25 0 1 1-2.5 0v-6.5a3.75 3.75 0 0 0-3.75-3.75h-6.5a1.25 1.25 0 1 1 0-2.5h6.5ZM6 35.75A6.25 6.25 0 0 0 12.25 42h6.5a1.25 1.25 0 1 0 0-2.5h-6.5a3.75 3.75 0 0 1-3.75-3.75v-6.5a1.25 1.25 0 1 0-2.5 0v6.5ZM35.75 42A6.25 6.25 0 0 0 42 35.75v-6.5a1.25 1.25 0 1 0-2.5 0v6.5a3.75 3.75 0 0 1-3.75 3.75h-6.5a1.25 1.25 0 1 0 0 2.5h6.5ZM25.292 11.75c-.896 0-1.536.49-1.94 1.008-.385.494-.632 1.099-.803 1.626a15.603 15.603 0 0 0-.4 1.575l-.068.327c-.052.25-.092.444-.13.595l-2.776 4.316a4.615 4.615 0 0 1-2.242 1.815l-1.255.477a2.983 2.983 0 0 0-1.873 3.359l.685 3.508a3.487 3.487 0 0 0 2.601 2.717l8.234 2.005c3.185.775 6.415-1.141 7.23-4.314l1.57-6.12c.545-2.123-.672-4.212-2.818-4.756a4.907 4.907 0 0 0-.689-.104A7.372 7.372 0 0 0 30 19.75h-1.332c.222-.883.37-1.747.37-2.539 0-1.33-.26-2.615-.827-3.614-.58-1.022-1.562-1.847-2.919-1.847Z"/></svg>
